svgs/sharp-thin/plug-circle-check.svg

<svg xmlns="http://www.w3.org/2000/svg" viewBox="0 0 576 512"><!--! Font Awesome Pro 6.6.0 by @fontawesome - https://fontawesome.com License - https://fontawesome.com/license (Commercial License) Copyright 2024 Fonticons, Inc. --><path d="M112 8l0-8L96 0l0 8 0 104 16 0L112 8zM288 8l0-8L272 0l0 8 0 104 16 0L288 8zM8 144l-8 0 0 16 8 0 32 0 0 80c0 81.3 63.8 147.6 144 151.8L184 504l0 8 16 0 0-8 0-112.2c20-1 39-6 56.3-14c-.2-3.2-.3-6.5-.3-9.8c0-2.7 .1-5.4 .2-8.1c-19.1 10.3-41 16.1-64.2 16.1c-75.1 0-136-60.9-136-136l0-80 272 0 0 66c5.1-3.8 10.5-7.3 16-10.5l0-55.5 32 0 8 0 0-16-8 0-32 0-16 0L56 144l-16 0L8 144zm424 96a128 128 0 1 1 0 256 128 128 0 1 1 0-256zm0 272a144 144 0 1 0 0-288 144 144 0 1 0 0 288zm75.3-184L496 316.7l-5.7 5.7L416 396.7l-42.3-42.3-5.7-5.7L356.7 360l5.7 5.7 48 48 5.7 5.7 5.7-5.7 80-80 5.7-5.7z"/></svg>

<svg xmlns="http://www.w3.org/2000/svg" viewBox="0 0 576 512"><!--! Font Awesome Pro 6.5.2 by @fontawesome - https://fontawesome.com License - https://fontawesome.com/license (Commercial License) Copyright 2024 Fonticons, Inc. --><path d="M112 8V0H96V8 112h16V8zM288 8V0H272V8 112h16V8zM8 144H0v16H8 40v80c0 81.3 63.8 147.6 144 151.8V504v8h16v-8V391.8c20-1 39-6 56.3-14c-.2-3.2-.3-6.5-.3-9.8c0-2.7 .1-5.4 .2-8.1c-19.1 10.3-41 16.1-64.2 16.1c-75.1 0-136-60.9-136-136V160H328v66c5.1-3.8 10.5-7.3 16-10.5V160h32 8V144h-8H344 328 56 40 8zm424 96a128 128 0 1 1 0 256 128 128 0 1 1 0-256zm0 272a144 144 0 1 0 0-288 144 144 0 1 0 0 288zm75.3-184L496 316.7l-5.7 5.7L416 396.7l-42.3-42.3-5.7-5.7L356.7 360l5.7 5.7 48 48 5.7 5.7 5.7-5.7 80-80 5.7-5.7z"/></svg>
